Icons/Line/si_Lock_muted.svg

<svg width="24" height="24" fill="none" xmlns="http://www.w3.org/2000/svg"><path d="M6.6 10h10.8c.88 0 1.6.72 1.6 1.6v7c0 1.32-1.08 2.4-2.4 2.4H7.4C6.08 21 5 19.92 5 18.6v-7c0-.88.72-1.6 1.6-1.6Z" stroke="#000" stroke-width="1.5" stroke-miterlimit="10"/><path d="M8 10V7c0-2.21 1.79-4 4-4s4 1.79 4 4v3" stroke="#000" stroke-width="1.5" stroke-miterlimit="10" stroke-linecap="round"/></svg>

<svg width="24" height="24" viewBox="0 0 24 24" fill="none" xmlns="http://www.w3.org/2000/svg">
<path d="M6.6 10H17.4C18.28 10 19 10.72 19 11.6V18.6C19 19.92 17.92 21 16.6 21H7.4C6.08 21 5 19.92 5 18.6V11.6C5 10.72 5.72 10 6.6 10Z" stroke="black" stroke-width="1.5" stroke-miterlimit="10"/>
<path d="M8 10V7C8 4.79 9.79 3 12 3C14.21 3 16 4.79 16 7V10" stroke="black" stroke-width="1.5" stroke-miterlimit="10" stroke-linecap="round"/>
</svg>
